sim-off-outline.svg

<svg fill="currentColor" viewBox="0 0 24 24"><path d="M22.11 21.46 2.39 1.73 1.11 3l3.95 3.95L4 8v12c0 1.11.89 2 2 2h12c.58 0 1.1-.25 1.46-.65l1.38 1.38zM18 20H6V8.83l.47-.47L18 19.89zM10.83 4H18v10.8l2 2V4a2 2 0 0 0-2-2h-8L7.6 4.4 9 5.81z"/></svg>

<svg  viewBox="0 0 24 24" fill="currentColor"><path  d="M22.11 21.46L2.39 1.73L1.11 3L5.06 6.95L4 8V20C4 21.11 4.89 22 6 22H18C18.58 22 19.1 21.75 19.46 21.35L20.84 22.73L22.11 21.46M18 20H6V8.83L6.47 8.36L18 19.89V20M10.83 4H18V14.8L20 16.8V4C20 2.9 19.11 2 18 2H10L7.6 4.4L9 5.81L10.83 4Z"/></svg>
